icons/fill-ele-medai-video-camera-solid.svg

<svg xmlns="http://www.w3.org/2000/svg" width="32px" height="32px" viewBox="0 0 32 32" version="1.1">
    <title>fill-ele-medai-video-camera-solid</title>
    <g id="fill-ele-medai-video-camera-solid" stroke-width="1" fill-rule="evenodd">
        <path d="M23,14 C23.5522847,14 24,14.4477153 24,15 L24,18.143 L28.6636636,16.477263 C29.1837733,16.2915095 29.7559884,16.5625588 29.9417419,17.0826685 C29.9802936,17.1906133 30,17.3043825 30,17.4190049 L30,24.5809951 C30,25.1332798 29.5522847,25.5809951 29,25.5809951 C28.8853776,25.5809951 28.7716084,25.5612887 28.6636636,25.522737 L24,23.857 L24,27 C24,27.5522847 23.5522847,28 23,28 L3,28 C2.44771525,28 2,27.5522847 2,27 L2,15 C2,14.4477153 2.44771525,14 3,14 L23,14 Z M17,24 L7,24 C6.44771525,24 6,24.4477153 6,25 C6,25.5522847 6.44771525,26 7,26 L17,26 C17.5522847,26 18,25.5522847 18,25 C18,24.4477153 17.5522847,24 17,24 Z M8,6 C10.209139,6 12,7.790861 12,10 C12,12.209139 10.209139,14 8,14 C5.790861,14 4,12.209139 4,10 C4,7.790861 5.790861,6 8,6 Z M17,4 C19.7614237,4 22,6.23857625 22,9 C22,11.7614237 19.7614237,14 17,14 C14.2385763,14 12,11.7614237 12,9 C12,6.23857625 14.2385763,4 17,4 Z M8,8 C6.8954305,8 6,8.8954305 6,10 C6,11.1045695 6.8954305,12 8,12 C9.1045695,12 10,11.1045695 10,10 C10,8.8954305 9.1045695,8 8,8 Z M17,6 C15.3431458,6 14,7.34314575 14,9 C14,10.6568542 15.3431458,12 17,12 C18.6568542,12 20,10.6568542 20,9 C20,7.34314575 18.6568542,6 17,6 Z" id="&#24418;&#29366;" />
    </g>
</svg>

<svg xmlns="http://www.w3.org/2000/svg" viewBox="0 0 32 32"><path fill="currentColor" d="M23 14a1 1 0 0 1 1 1v3.143l4.664-1.666A1 1 0 0 1 30 17.42v7.162a1 1 0 0 1-1.336.942L24 23.857V27a1 1 0 0 1-1 1H3a1 1 0 0 1-1-1V15a1 1 0 0 1 1-1zm-6 10H7a1 1 0 0 0 0 2h10a1 1 0 0 0 0-2M8 6a4 4 0 1 1 0 8 4 4 0 0 1 0-8m9-2a5 5 0 1 1 0 10 5 5 0 0 1 0-10M8 8a2 2 0 1 0 0 4 2 2 0 0 0 0-4m9-2a3 3 0 1 0 0 6 3 3 0 0 0 0-6"/></svg>
